symbols/web/edit_attributes/materialsymbolsrounded/edit_attributes_40px.svg

<svg xmlns="http://www.w3.org/2000/svg" height="40" width="40"><path d="M11.625 28.333q-3.375 0-5.854-2.458T3.292 20q0-3.417 2.479-5.875t5.854-2.458h16.667q3.416 0 5.875 2.458 2.458 2.458 2.458 5.875t-2.458 5.875q-2.459 2.458-5.875 2.458Zm0-2.791h16.667q2.333 0 3.958-1.604 1.625-1.605 1.625-3.938t-1.625-3.938q-1.625-1.604-3.958-1.604H11.625q-2.333 0-3.937 1.604Q6.083 17.667 6.083 20t1.605 3.938q1.604 1.604 3.937 1.604Zm1.792-2.292q.291 0 .521-.083.229-.084.437-.292l4.167-4.167q.333-.333.333-.791 0-.459-.333-.834-.334-.333-.792-.333t-.792.333l-3.541 3.542-1-1.042q-.375-.333-.813-.312-.437.021-.771.354-.375.333-.375.792 0 .458.375.833l1.625 1.625q.209.208.438.292.229.083.521.083ZM20 20Z"/></svg>

<svg xmlns="http://www.w3.org/2000/svg" height="40" width="40"><path d="M11.625 28.333Q8.25 28.333 5.771 25.875Q3.292 23.417 3.292 20Q3.292 16.583 5.771 14.125Q8.25 11.667 11.625 11.667H28.292Q31.708 11.667 34.167 14.125Q36.625 16.583 36.625 20Q36.625 23.417 34.167 25.875Q31.708 28.333 28.292 28.333ZM11.625 25.542H28.292Q30.625 25.542 32.25 23.938Q33.875 22.333 33.875 20Q33.875 17.667 32.25 16.062Q30.625 14.458 28.292 14.458H11.625Q9.292 14.458 7.688 16.062Q6.083 17.667 6.083 20Q6.083 22.333 7.688 23.938Q9.292 25.542 11.625 25.542ZM13.417 23.25Q13.708 23.25 13.938 23.167Q14.167 23.083 14.375 22.875L18.542 18.708Q18.875 18.375 18.875 17.917Q18.875 17.458 18.542 17.083Q18.208 16.75 17.75 16.75Q17.292 16.75 16.958 17.083L13.417 20.625L12.417 19.583Q12.042 19.25 11.604 19.271Q11.167 19.292 10.833 19.625Q10.458 19.958 10.458 20.417Q10.458 20.875 10.833 21.25L12.458 22.875Q12.667 23.083 12.896 23.167Q13.125 23.25 13.417 23.25ZM20 20Q20 20 20 20Q20 20 20 20Q20 20 20 20Q20 20 20 20Q20 20 20 20Q20 20 20 20Q20 20 20 20Q20 20 20 20Z"/></svg>
